assets/2023/icons/font_dark.svg

<!-- Copyright 2000-2022 JetBrains s.r.o. and contributors. Use of this source code is governed by the Apache 2.0 license. -->
<svg width="16" height="16" viewBox="0 0 16 16" fill="none" xmlns="http://www.w3.org/2000/svg">
<path d="M2.07937 12L2.8805 9.69032H6.2896L7.08647 12H8.4842L5.34357 3.27271H3.82227L0.681641 12H2.07937ZM3.26403 8.58236L4.55096 4.85793H4.61914L5.90607 8.58236H3.26403Z" fill="#CED0D6"/>
<path d="M11.5471 12.1449C12.6294 12.1449 13.2388 11.5951 13.4817 11.1051H13.5328V12H14.7772V7.65339C14.7772 5.74856 13.2772 5.3693 12.2374 5.3693C11.0527 5.3693 9.96183 5.84657 9.53569 7.03975L10.7331 7.31248C10.9206 6.84799 11.3979 6.40055 12.2544 6.40055C13.0769 6.40055 13.4988 6.83094 13.4988 7.57242V7.60225C13.4988 8.06674 13.0215 8.05822 11.8453 8.19458C10.6053 8.33947 9.33541 8.66333 9.33541 10.1505C9.33541 11.4375 10.3027 12.1449 11.5471 12.1449ZM11.824 11.1221C11.1039 11.1221 10.584 10.7983 10.584 10.1676C10.584 9.48577 11.1891 9.24288 11.9263 9.14486C12.3397 9.08947 13.3198 8.97867 13.503 8.79543V9.63918C13.503 10.4148 12.8851 11.1221 11.824 11.1221Z" fill="#CED0D6"/>
</svg>

<svg xmlns="http://www.w3.org/2000/svg" width="16" height="16" fill="none" viewBox="0 0 16 16"><path fill="#CED0D6" d="m2.08 12 .8-2.31h3.41L7.086 12h1.398l-3.14-8.727H3.822L.682 12zm1.184-3.418 1.287-3.724h.068l1.287 3.724zm8.283 3.563c1.082 0 1.692-.55 1.935-1.04h.05V12h1.245V7.653c0-1.904-1.5-2.284-2.54-2.284-1.184 0-2.275.478-2.701 1.67l1.197.273c.188-.464.665-.911 1.521-.911.823 0 1.245.43 1.245 1.171v.03c0 .465-.478.456-1.654.593-1.24.144-2.51.468-2.51 1.955 0 1.287.968 1.995 2.212 1.995m.277-1.023c-.72 0-1.24-.324-1.24-.954 0-.682.605-.925 1.342-1.023.414-.056 1.394-.166 1.577-.35v.844c0 .776-.618 1.483-1.679 1.483"/></svg>
